build/img/section4-card-1.svg

<svg width="80" height="79" viewBox="0 0 80 79" fill="none" xmlns="http://www.w3.org/2000/svg">
<path d="M56.7812 19.21V34.8711H55.2188V44.1289H56.7812V59.79H75.3125V19.21H56.7812ZM66.0469 51.4271C65.1875 51.4271 64.4844 50.7328 64.4844 49.8842C64.4844 49.0355 65.1875 48.3412 66.0469 48.3412C66.9063 48.3412 67.6094 49.0355 67.6094 49.8842C67.6094 50.7328 66.9063 51.4271 66.0469 51.4271Z" fill="#E6E6E6"/>
<path d="M24.3125 45.5793H27.4375V44.0364H40.4688V25.7213H11.2812V44.0364H24.3125V45.5793Z" fill="#69C9C9"/>
<path d="M1.5625 53.6343H24.3125V59.7907H20.2344V62.8767H31.5312V59.7907H27.4531V53.6343H50.2031V16.1401H1.5625V53.6343ZM4.6875 19.2106H47.0625V50.5329H4.6875V19.2106Z" fill="#4D5152"/>
<path d="M8.15625 47.1223H24.3125V44.0364H11.2812V25.7213H40.4688V44.0364H27.4375V47.1223H43.5938V22.6354H8.15625V47.1223Z" fill="#4D5152"/>
<path d="M72.1875 24.4869H59.9062V27.5729H72.1875V24.4869Z" fill="#4D5152"/>
<path d="M72.1875 30.6588H59.9062V33.7448H72.1875V30.6588Z" fill="#4D5152"/>
<path d="M66.0469 45.2552C63.4688 45.2552 61.3594 47.3383 61.3594 49.8842C61.3594 52.4301 63.4688 54.5131 66.0469 54.5131C68.625 54.5131 70.7344 52.4301 70.7344 49.8842C70.7344 47.3383 68.625 45.2552 66.0469 45.2552ZM66.0469 51.4271C65.1875 51.4271 64.4844 50.7328 64.4844 49.8842C64.4844 49.0355 65.1875 48.3412 66.0469 48.3412C66.9063 48.3412 67.6094 49.0355 67.6094 49.8842C67.6094 50.7328 66.9063 51.4271 66.0469 51.4271Z" fill="#4D5152"/>
<path d="M56.7812 37.957H53.6562V41.043H56.7812V37.957Z" fill="#4D5152"/>
<path d="M53.6562 16.124V34.8711H56.7812V19.21H75.3125V59.79H56.7812V44.1289H53.6562V62.876H78.4375V16.124H53.6562Z" fill="#4D5152"/>
</svg>

<svg width="80" height="79" viewBox="0 0 80 79" fill="none" xmlns="http://www.w3.org/2000/svg"><path d="M56.781 19.21v15.661H55.22v9.258h1.562V59.79h18.532V19.21H56.78zm9.266 32.217c-.86 0-1.563-.694-1.563-1.543s.704-1.543 1.563-1.543c.86 0 1.562.694 1.562 1.543s-.703 1.543-1.562 1.543z" fill="#E6E6E6"/><path d="M24.313 45.58h3.125v-1.544h13.03V25.721H11.282v18.315h13.031v1.543z" fill="#69C9C9"/><path d="M1.563 53.634h22.75v6.157h-4.079v3.086h11.297V59.79h-4.078v-6.157h22.75V16.14H1.563v37.494zm3.125-34.423h42.374v31.322H4.688V19.21z" fill="#4D5152"/><path d="M8.156 47.122h16.157v-3.086H11.28V25.721h29.19v18.315H27.437v3.086h16.157V22.635H8.156v24.487zm64.032-22.635H59.906v3.086h12.282v-3.086zm0 6.172H59.906v3.086h12.282v-3.086zm-6.141 14.596c-2.578 0-4.688 2.083-4.688 4.63 0 2.545 2.11 4.628 4.688 4.628s4.687-2.083 4.687-4.629c0-2.546-2.109-4.629-4.687-4.629zm0 6.172c-.86 0-1.563-.694-1.563-1.543s.704-1.543 1.563-1.543c.86 0 1.562.694 1.562 1.543s-.703 1.543-1.562 1.543zm-9.266-13.47h-3.125v3.086h3.125v-3.086z" fill="#4D5152"/><path d="M53.656 16.124v18.747h3.125V19.21h18.532v40.58H56.78V44.129h-3.125v18.747h24.782V16.124H53.656z" fill="#4D5152"/></svg>
